icon/pk/file-protection-one.svg

<svg viewBox="0 0 48 48" fill="none" xmlns="http://www.w3.org/2000/svg" height="1em" width="1em">
  <path d="M40 23V14L31 4H10C8.89543 4 8 4.89543 8 6V42C8 43.1046 8.89543 44 10 44H22" stroke="black" stroke-width="4" stroke-linecap="round" stroke-linejoin="round"/>
  <path d="M27 31.2C27 30.1333 34 28 34 28C34 28 41 30.1333 41 31.2C41 39.7333 34 44 34 44C34 44 27 39.7333 27 31.2Z" fill="#2F88FF" stroke="black" stroke-width="4" stroke-linecap="round" stroke-linejoin="round"/>
  <path d="M30 4V14H40" stroke="black" stroke-width="4" stroke-linecap="round" stroke-linejoin="round"/>
</svg>

<svg width="48" height="48" fill="none" xmlns="http://www.w3.org/2000/svg"><path d="M40 23v-9L31 4H10a2 2 0 0 0-2 2v36a2 2 0 0 0 2 2h12" stroke="#000" stroke-width="4" stroke-linecap="round" stroke-linejoin="round"/><path d="M27 31.2c0-1.067 7-3.2 7-3.2s7 2.133 7 3.2c0 8.533-7 12.8-7 12.8s-7-4.267-7-12.8Z" fill="#2F88FF" stroke="#000" stroke-width="4" stroke-linecap="round" stroke-linejoin="round"/><path d="M30 4v10h10" stroke="#000" stroke-width="4" stroke-linecap="round" stroke-linejoin="round"/></svg>
